!! 00000] TT[00
!! NN
!!!OTL: Jiejie meimei liang duo hua
!!!ARE: Asia, China, Shanxi, Dingxiang
!! Ethnic Group: Han
!! I, 293
!!!SCT: C0074
!!!YEM: Copyright 1995, estate of Helmut Schaffrath.
**kern
*ICvox
*Ivox
*M2/4
*k[]
*C:
{8ee
4ee
8ee
=1
4dd
8dd
8dd
=2
8ee
8gg
8ee
8dd
=3
4.cc
8dd}
=4
{8ee
4ee
8ee
=5
8dd
8ee
8dd
8cc
=6
8b
8dd
8b
8a
=7
2g}
=8
{4.g
8a
=9
4cc
4ee
=10
8dd
8ee
8dd
8g
=11
4.a
8r}
=12
{8dd
8cc#
8dd
8dd
=13
8ee
8gg
8b
8a
=14
8g
8e
8g
8a
=15
4cc
8b
8a
=16
8g
8a
8r
8e
=17
4d
4r}
==
!!!AGN: Xiaodiao. Xin minge
!! neuer Text
!!    Vereinzelt Verzierungen.
!!!ONB: ESAC (Essen Associative Code) Database: CHINA
!!!AMT: simple duple
!!!AIN: vox
!!!EED: Helmut Schaffrath
!!!EEV: 1.0
*-
